!!!SOCIAL_FUNCTION:	winter dances
!!!PDT:	1956
!!!OTL: No_197_Skunk_Dance_Song_(a).krn
!!!LANG: Non-Tone
!!!LING_GROUP: Muskogean
!!!REG: Florida
**kern
*staff1
=1-
*clefF4
*k[b-e-]
*M2/4
(8c\L
8A\J)
8A\L
8A\J
=2
4c\
4A\
=3
4G\
(8.G\L
16F\Jk)
=4
4G\
4B-\
=5
4G\
(8.B-\L
16G\Jk)
=6
(8G\L
8F\J)
8F\
8r
=7
4D\
8G\L
8F\J
=8
4G\
4B-\
=9
4G\
8G\L
8F\J
=10
4G\
4r
=11||
*M3/4
4D\
8G\L
8G\J
4G\
=12:|!|:
*M2/4
4B-\
8B-\L
8B-\J
=13
4c\
4B-\
=14
4G\
8G\L
8F\J
=15
4G\
4F\
=16
4D\
8G\L
8F\J
=17
4G\
4B-\
=18
4G\
8.B-\L
16G\Jk
=19
4G\
4r
=20
*M3/4
4D\
8G\L
8G\J
4G\
=21||
*M2/4
4G\
8G\L
8G\J
=22||
*M3/4
4F\
2r
=23
4D\
8F\L
8F\J
4F\
==:|!
*-
